symbols/web/sports_gymnastics/materialsymbolsoutlined/sports_gymnastics_wght200grad200_48px.svg

<svg xmlns="http://www.w3.org/2000/svg" height="48" width="48"><path d="M12.65 15q-1.5 0-2.5-1.025t-1-2.475q0-1.45 1-2.475Q11.15 8 12.65 8q1.45 0 2.45 1.025 1 1.025 1 2.475 0 1.45-1 2.475Q14.1 15 12.65 15ZM24.9 44.4l-.4-20.6-9.75-2.75H1.05V18.9H14.3L30.4 7.55l1.45 1.65-9.25 6.55 5.9 2.5L44.2 8.5l1.3 1.6-16.75 12.25L27.1 44.4Z"/></svg>

<svg xmlns="http://www.w3.org/2000/svg" height="48" width="48"><path d="M12.65 15Q11.15 15 10.15 13.975Q9.15 12.95 9.15 11.5Q9.15 10.05 10.15 9.025Q11.15 8 12.65 8Q14.1 8 15.1 9.025Q16.1 10.05 16.1 11.5Q16.1 12.95 15.1 13.975Q14.1 15 12.65 15ZM24.9 44.4 24.5 23.8 14.75 21.05H1.05V18.9H14.3L30.4 7.55L31.85 9.2L22.6 15.75L28.5 18.25L44.2 8.5L45.5 10.1L28.75 22.35L27.1 44.4Z"/></svg>
